X:1040
T:Dancing In Kyle
C:Joe Buchanan's Scottish Tome - Page 630.2
I:630 2
Z:Carl Allison
R:Waltz
L:1/4
M:3/4
K:D
(E/F/) | "D"(A D) D | "D7"(d A) A | "G"B c d | "D"(A F) F/G/ |
"D"(A D) D | "Bm"d (A F) | "E7"E3- | "A7"E2 F/G/ |
"D"(A D) D | "D7"(d A) A | "G"B c d | "D"(A F) F/G/ |
"D"(A d) d | "A7"(c B) c | "D"d3- | d2 (d/e/) |
"D"(f d) d | "D"(A d) d | "D"(f d) d | "D7"(A d) d |
"G"B c d | "D"(A F) D | "E7"E3- | "A7"E2 (F/G/) |
"D"(A D) D | "D7"(d A) A | "G"B c d | "D"(A F) G |
"D"(A d) d | "A7"c B c | "D"d3- | d2 |
